X:1
T:CARNAVAL DES ANIMAUX
T:CARNAVAL DES ANIMAUX 
T:(St Saens)
T:Arrgt : S. Hermanrd 
C:Arrgt : S. Hermanrd
%%score { 1 | 2 } { 3 | 4 }
L:1/8
Q:1/4=100
M:4/4
K:C
V:1 treble nm="Piano" snm="Pia."
V:2 treble 
V:3 bass nm="Piano" snm="Pia."
V:4 bass 
V:1
!mf!!8va(! e'a b/_e'/a/B/ =e'a b/_e'/a/B/ | e'aaf afaf |!mf! e'a b/_e'/a/B/ =e'a b/_e'/a/B/ | %3
 e'a ^f'/a'/e' f'/a'/e' f'/a'/e' | e'a b/_e'/a/B/ =e'af'_a | d'g_d'_d =d'ge'a | %6
 z/ c'/e/e/ z/ b/_e/e/ z/ c'/=e/e/ z/ d'/^f/f/ | b'/a'/e' b'/_a'/e' b'/a'/e' b'/a'/e' | %8
 z2 e'/_d'/_b/d'/ a/c'/_e'/c'/ =d'/=b/_a/b/ | g/_b/_d'/b/ c'/a/^f/a/ =f/_a/=b/a/ _b/g/=e/g/!8va)! | %10
 _e/^f/a/f/ _a/=f/d/f/ _d/=e/g/e/ ^f/_e/c/e/ | B/d/f/d/ e/_d/_B/d/ B/d/e/d/ =B/=d/e |] %12
V:2
!8va(! c'/c'/e/e/ a_e c'/c'/=e/e/ a_e | c'/c'/e/e/ f/f/d/d/ f/f/d/d/ f/f/d/d/ | %2
 c'/c'/e/e/ a_e c'/c'/=e/e/ a_e | c'/c'/e/e/ a>^f a>f a>f | c'/c'/e/e/ a_e c'/c'/=e/e/ c'/c'/f/f/ | %5
 b/b/d/d/ a/a/G/G/ b/b/d/d/ b/b/e/e/ | a/a/c/c/ a/a/B/B/ a/a/c/c/ a/a/d/A/ | %7
 _a'/^f'/b/b/ a'/=f'/_a/b/ a'/f'/b/b/ a'/f'/b/b/ | z2 g/e/_d/e/ c/_e/^f/e/ =f/=d/B/d/ | %9
 _B/_d/e/d/ _e/c/A/c/ _A/=B/=d/B/ _d/_B/G/B/!8va)! | ^F/A/c/A/ B/_A/=F/A/ E/G/_B/G/ =A/^F/_E/F/ | %11
 D/F/_A/F/ G/E/_D/E/ D/E/G/E/ =D/E/A |] %12
V:3
!p! z/ A,/C/C/ z/ A,/B,/B,/ z/ A,/C/C/ z/ A,/B,/B,/ | z/ A,/C/C/ z/ D/F/A/ z/ D/F/A/ z/ D/F/A/ | %2
!p! z/ A,/C/C/ z/ A,/B,/B,/ z/ A,/C/C/ z/ A,/B,/B,/ | %3
 z/ A,/C/C/[K:treble] z/ D/^F/F/ z/ D/F/F/ z/ D/F/F/ | %4
 z/ A,/C/C/ z/ A,/B,/B,/ z/ A,/C/C/ z/ _A,/C/C/ | %5
 z/ G,/B,/B,/ z/ G,/A,/A,/ z/ G,/B,/B,/ z/ _A,/E/E/ | %6
 z/ A,/C/C/ z/ A,/B,/B,/ z/ A,/C/C/ z/ ^F,/D/D/ | %7
 z/ _A,/B,/E/ z/ A,/B,/E/ z/ A,/B,/E/ z/ A,/B,/E/ | %8
 z2 _B,/G,/E,/G,/ _E,/^F,/A,/F,/ _A,/=F,/D,/F,/ | %9
 _D,/E,/G,/E,/ ^F,/E,/C,/E,/ B,,/=D,/=F,/D,/ _E,/_D,/_B,,/D,/ | %10
 A,,/C,/_E,/C,/ D,/B,,/_A,,/B,,/ G,,/_B,,/_D,/B,,/ C,/A,,/^F,,/A,,/ | %11
 F,,/_A,,/B,,/A,,/ _B,,/G,,/E,,/G,,/ E,,/G,,/B,,/G,,/ E,,/A,,/=B,, |] %12
V:4
 A,,/E,E,/ A,,/F,_E,/ A,,/=E,E,/ A,,/F,_E,/ | A,,/E,E,/ D,/A,A,/ D,/A,A,/ D,/A,A,/ | %2
 A,,/E,E,/ A,,/F,_E,/ A,,/=E,E,/ A,,/F,_E,/ | A,,/E,E,/ D,/A,A,/ D,/A,A,/ D,/A,A,/ | %4
 A,,/E,E,/ A,,/F,_E,/ A,,/=E,E,/ _A,,/F,F,/ | G,,/D,D,/ G,,/_E,_D,/ G,,/=D,D,/ E,,/B,,B,,/ | %6
 A,,/E,E,/ A,,/_E,E,/ A,,/=E,E,/ D,,/A,,^F,/ | E,,/B,,E,/ E,,/B,,E,/ E,,/B,,E,/ E,,/B,,E,/ | z8 | %9
 z8 | z8 | z8 |] %12

